img/payment/img5.svg

<svg width="50" height="28" viewBox="0 0 50 28" fill="none" xmlns="http://www.w3.org/2000/svg">
<path d="M10.2262 15.4922L13.5275 17.6709V21.6952L10.2072 27.6414L10.2262 15.4922Z" fill="#62B22F"/>
<path d="M7.48621 13.7793L10.778 15.6916L0.997726 21.6283L4.18488 15.8153L7.48621 13.7793Z" fill="#974995"/>
<path d="M22.8512 8.28958L16.553 8.26104L13.5181 6.43437L10.2263 0.668945L22.8512 8.28958Z" fill="#EE7024"/>
<path d="M10.2262 0.668945L13.518 6.43437L13.5275 14.3785L10.2072 13.37L10.2262 0.668945Z" fill="#FBB61B"/>
<path d="M0.969055 6.47266L4.19427 12.3427L4.18475 15.8153L0.997597 21.6283L0.969055 6.47266Z" fill="#5A58A3"/>
<path d="M0.969055 6.47266L22.8035 19.8302L16.5433 19.8682L4.19427 12.3427L0.969055 6.47266Z" fill="#2188CB"/>
<path d="M16.5527 8.26074L22.8509 8.28928L13.5273 14.0167L13.5178 10.1064L16.5527 8.26074Z" fill="#DA0954"/>
<path d="M34.7054 9.2025C35.4665 8.50798 36.5226 8.15597 37.5501 8.18451C38.6251 8.16548 39.7097 8.23208 40.7848 8.1084C40.5565 8.82194 40.0808 9.44035 39.7668 10.1158C38.9962 10.1253 38.2256 10.1063 37.4454 10.1253C36.456 10.211 35.5046 11.0101 35.4094 12.0186C36.3133 11.1148 37.7213 11.0577 38.8915 11.3526C39.6717 11.619 40.3757 12.2089 40.6611 12.9985C40.9275 13.6931 40.9656 14.4542 40.7943 15.1772C40.5374 16.1667 39.7383 16.9373 38.7964 17.2988C37.6928 17.7174 36.4179 17.7365 35.3143 17.2988C34.2678 16.8707 33.5257 15.8813 33.2783 14.7967C33.0024 13.8263 33.0405 12.3992 33.3259 11.4192C33.5733 10.582 34.0585 9.80187 34.7054 9.2025ZM37.3883 12.9795C36.7985 12.8653 36.1325 13.1032 35.8281 13.6169C35.2762 14.5588 36.0374 15.9574 37.2742 15.7861C38.6347 15.5863 38.9867 13.4076 37.3883 12.9795ZM28.6165 10.544C29.8343 10.2395 31.2328 10.3347 32.2699 11.0958C31.9274 11.6476 31.6134 12.2279 31.2994 12.7988C30.7952 12.6275 30.291 12.3611 29.7487 12.3706C29.1683 12.3516 28.5309 12.5799 28.1979 13.0842C27.8459 13.6169 27.8269 14.3495 28.1694 14.8918C28.4738 15.4056 29.0827 15.6434 29.6535 15.691C30.1007 15.6434 30.5573 15.5768 30.9664 15.3865C31.0616 15.3199 31.1758 15.3294 31.2899 15.339C31.4897 15.9193 31.9369 16.395 32.1081 16.9754C30.9855 17.5747 29.644 17.6984 28.4167 17.4035C27.57 17.1561 26.7613 16.6709 26.2761 15.9098C25.5055 14.7301 25.534 13.0651 26.4188 11.9615C26.9516 11.2385 27.7698 10.7723 28.6165 10.544ZM41.9931 10.5725C44.362 10.5535 46.731 10.5535 49.0999 10.5725C49.0809 12.8273 49.0904 15.0726 49.0904 17.3274C48.2913 17.3274 47.4921 17.3369 46.7024 17.3274C46.7405 15.8527 46.6644 14.3781 46.712 12.9034C46.712 12.7892 46.6929 12.6846 46.6358 12.5799C45.9128 12.599 45.1802 12.599 44.4476 12.5799C44.4001 14.1592 44.4381 15.7385 44.4286 17.3274C43.6199 17.3369 42.8017 17.3369 41.9931 17.3274C41.9931 15.0726 42.0026 12.8273 41.9931 10.5725Z" fill="white"/>
<path d="M13.5275 21.6948L16.5434 19.8681L22.8036 19.8301L10.2072 27.641L13.5275 21.6948Z" fill="#037F37"/>
</svg>

<svg width="50" height="28" fill="none" xmlns="http://www.w3.org/2000/svg"><path d="M10.226 15.492l3.301 2.179v4.024l-3.32 5.946.02-12.149z" fill="#62B22F"/><path d="M7.486 13.78l3.292 1.912-9.78 5.936 3.187-5.813 3.301-2.036z" fill="#974995"/><path d="M22.851 8.29l-6.298-.029-3.035-1.827L10.226.67l12.625 7.62z" fill="#EE7024"/><path d="M10.226.669l3.292 5.765.01 7.945-3.32-1.009.018-12.701z" fill="#FBB61B"/><path d="M.97 6.473l3.224 5.87-.01 3.472-3.186 5.813L.969 6.473z" fill="#5A58A3"/><path d="M.97 6.473L22.802 19.83l-6.26.038-12.349-7.525L.97 6.473z" fill="#2188CB"/><path d="M16.553 8.26l6.298.03-9.324 5.727-.01-3.91 3.036-1.846z" fill="#DA0954"/><path d="M34.705 9.203c.762-.695 1.818-1.047 2.845-1.018 1.075-.02 2.16.047 3.235-.077-.228.714-.704 1.332-1.018 2.008-.77.01-1.541-.01-2.322.01-.989.085-1.94.884-2.036 1.893.904-.904 2.312-.961 3.483-.666.78.266 1.484.856 1.77 1.646.266.694.304 1.455.132 2.178-.257.99-1.056 1.76-1.998 2.122-1.103.418-2.378.438-3.482 0-1.046-.428-1.788-1.418-2.036-2.502-.276-.97-.237-2.398.048-3.378a4.975 4.975 0 011.38-2.216zm2.683 3.777c-.59-.115-1.255.123-1.56.637-.552.942.21 2.34 1.446 2.17 1.36-.2 1.713-2.38.114-2.808zm-8.771-2.436c1.217-.305 2.616-.21 3.653.552-.343.552-.657 1.132-.97 1.703-.505-.171-1.009-.438-1.551-.428-.58-.02-1.218.209-1.551.713a1.699 1.699 0 00-.029 1.808c.305.514.914.751 1.485.799.447-.048.903-.114 1.312-.305.096-.066.21-.057.324-.047.2.58.647 1.056.818 1.636-1.122.6-2.464.723-3.691.428-.847-.247-1.656-.732-2.14-1.493-.771-1.18-.743-2.845.142-3.949.533-.723 1.35-1.189 2.197-1.417zm13.376.028c2.369-.018 4.738-.018 7.107 0-.02 2.255-.01 4.5-.01 6.755-.799 0-1.598.01-2.388 0 .038-1.474-.038-2.949.01-4.424a.648.648 0 00-.076-.323c-.723.019-1.456.019-2.188 0-.048 1.58-.01 3.159-.02 4.747-.808.01-1.626.01-2.435 0 0-2.254.01-4.5 0-6.755z" fill="#fff"/><path d="M13.527 21.695l3.016-1.827 6.26-.038-12.596 7.811 3.32-5.946z" fill="#037F37"/></svg>
